X:1
T:The Story That Never Grows Old
T:Ira David Sankey
T:The Story That Never Grows Old
T:Public Domain
T:Public Domain
C:Ira David Sankey
Z:Public Domain
%%score ( 1 2 ) ( 3 4 )
L:1/8
M:6/8
K:F
V:1 treble 
V:2 treble 
V:3 bass 
V:4 bass 
V:1
 [Fc] | [Fc]>[F=B][Fc] [Fd][Fc][FA] | [DG]<[DF][B,D] [A,C]2 C | [CF]>[CF][CF] [FA][EG]F | %4
w: 1.~O|tell me the sto- ry that|ne- ver grows old, The|ry of One whom the pro-|
w: 2.~O|tell me the sto- ry that|ne- ver grows old, The|ry the an- gel at Beth-|
w: 3.~O|tell me the sto- ry that|ne- ver grows old, The|ry the Gos- pels re- peat|
w: 4.~O|tell me the sto- ry that|ne- ver grows old, The|ry the ag- es to come|
 [Cc]>[Cc][F=B] [Ec]2 [Fc] | [Fc]>[F=B][Fc] [Fd][Fc][FA] | [DG]<[DF][B,D] [A,C]2 C | %7
w: fore- told; The horn of|sal- va- tion, the scep- ter|and star, The light in|
w: hem told; The Babe in|the man- ger, of low- li-|est birth, The high- est|
w: i- fold; The love and|com- pas- sion in Je- sus|we trace, The pow- er|
w: un- fold; The kind- ness|of God in re- deem- ing|the lost, The death of|
 [CF]F[EG] [FA]<[Fc]F | [FA][CF][EG] F2 ||"^Refrain" [FA] | [Ac]<[Ac][Ac] [FA]2 [Fc] | %11
w: the dark- ness they saw from|a- far. * *|||
w: arch- an- gel ex- cel- ling|in worth. * *|||
w: and pa- tience, the glo- ry|and grace. * *|||
w: our Sav- ior in pay- ing|the cost. * *|||
 [Fd]<[Fd][Fd] [Fc]2 [FA] | [FB]>[Fc][Fd] [Fc]F[GB] | [FA]<[FA][EG] F6 |] %14
w: |||
w: |||
w: |||
w: |||
V:2
 x | x6 | x5 C | x5 F | x6 | x6 | x6 | x6 | x3 F2 || x | x6 | x6 | x6 | x3 F6 |] %14
w: ||sto-|phets|||||||||||
w: ||sto-|le-|||||||||||
w: ||sto-|man-|||||||||||
w: ||sto-|will|||||||||||
V:3
 [F,A,] | [F,A,]>[F,^G,][F,A,] [F,B,][F,A,][F,C] | [B,,B,]<[B,,B,][B,,F,] F,2 [F,A,] | %3
w: ~|~ ~ ~ ~ ~ ~|~ ~ ~ ~ ~|
 [F,A,]>[F,A,][F,A,] [F,C][F,B,][F,A,] | [E,G,]>[E,G,][E,G,] [C,G,]2 [F,A,] | %5
w: ~ ~ ~ ~ ~ ~|~ ~ ~ ~ ~|
 [F,A,]>[F,^G,][F,A,] [F,B,][F,A,][F,C] | [B,,B,]<[B,,B,][B,,F,] F,2 [F,A,] | %7
w: ~ ~ ~ ~ ~ ~|~ ~ ~ ~ ~|
 [F,A,][A,,C][C,C] [F,C]<[F,A,][D,A,] | [C,C][C,A,][C,B,] [F,A,]2 || [F,C] | %10
w: ~ ~ ~ ~ ~ ~|~ ~ It ne-|ver|
 [F,F]<[F,F][F,F] [F,C]2 [F,A,] | [B,,B,]<[B,,B,][D,B,] [F,A,]2 [_E,C] | %12
w: grows old, it ne- ver|grows old, The sto- ry|
 [D,B,]>[C,A,][B,,B,] [F,A,][A,,C][B,,D] | [C,C]<[C,C][C,B,] [F,A,]6 |] %14
w: of Je- sus will ne- ver|grow old! * *|
V:4
 x | x6 | x3 F,2 x | x6 | x6 | x6 | x3 F,2 x | x6 | x5 || x | x6 | x6 | x6 | x9 |] %14
w: ||~||||~||||||||

